public/luts/fairytown_forest_look.cube
# Fairytown Forest Look
# Soft moss-green shadows, warm highlights, gentle contrast.
TITLE "Fairytown Forest Look"
LUT_3D_SIZE 5
DOMAIN_MIN 0.0 0.0 0.0
DOMAIN_MAX 1.0 1.0 1.0
0.000000 0.000000 0.000000
0.238544 0.000000 0.000000
0.501129 0.000000 0.000000
0.766611 0.000000 0.000000
1.000000 0.000000 0.000000
0.000000 0.239703 0.000000
0.232036 0.236980 0.000000
0.499229 0.234246 0.000000
0.768822 0.231490 0.000000
1.000000 0.228713 0.000000
0.000000 0.504668 0.000000
0.226114 0.501757 0.000000
0.495939 0.500029 0.000000
0.765368 0.498555 0.000000
1.000000 0.496552 0.000000
0.000000 0.772364 0.000000
0.219564 0.770536 0.000000
0.490369 0.768300 0.000000
0.762058 0.765334 0.000000
1.000000 0.762359 0.000000
0.000000 1.000000 0.000000
0.214417 1.000000 0.000000
0.486787 1.000000 0.000000
0.760145 1.000000 0.000000
1.000000 1.000000 0.000000
0.000000 0.000000 0.233024
0.237812 0.000000 0.230866
0.500964 0.000000 0.229859
0.766906 0.000000 0.229060
1.000000 0.000000 0.227997
0.000000 0.238774 0.228466
0.231455 0.236055 0.227421
0.499053 0.233314 0.226354
0.769050 0.230550 0.225264
1.000000 0.227765 0.224152
0.000000 0.503683 0.224772
0.225469 0.501004 0.223456
0.495179 0.499529 0.220956
0.764604 0.497844 0.218537
1.000000 0.495958 0.215965
0.000000 0.771656 0.217606
0.219103 0.769964 0.214902
0.490016 0.767299 0.212458
0.761873 0.764332 0.210085
1.000000 0.761356 0.207703
0.000000 1.000000 0.209192
0.213901 1.000000 0.206829
0.486439 1.000000 0.204457
0.759965 1.000000 0.202075
1.000000 1.000000 0.199384
0.000000 0.000000 0.496204
0.237131 0.000000 0.494528
0.500795 0.000000 0.495124
0.767152 0.000000 0.495552
1.000000 0.000000 0.495599
0.000000 0.237853 0.495368
0.230872 0.235127 0.495444
0.498874 0.232378 0.495495
0.769275 0.229608 0.495521
1.000000 0.226962 0.495137
0.000000 0.502695 0.495448
0.224767 0.500504 0.494073
0.494420 0.499030 0.491319
0.763936 0.497119 0.488841
1.000000 0.495364 0.485672
0.000000 0.771084 0.487608
0.218624 0.769258 0.484514
0.489664 0.766299 0.481997
0.761689 0.763330 0.479470
1.000000 0.760353 0.476933
0.000000 1.000000 0.478528
0.213385 1.000000 0.476009
0.486091 1.000000 0.473480
0.759736 1.000000 0.470809
1.000000 1.000000 0.467856
0.000000 0.000000 0.759383
0.236498 0.000000 0.759355
0.500624 0.000000 0.761325
0.767388 0.000000 0.762797
1.000000 0.000000 0.763965
0.000000 0.236930 0.763034
0.230287 0.234196 0.764230
0.498694 0.231441 0.765397
0.769497 0.228663 0.766538
1.000000 0.226365 0.765677
0.000000 0.501705 0.766882
0.224065 0.500005 0.764517
0.493662 0.498532 0.761507
0.763670 0.496526 0.758697
1.000000 0.494697 0.755145
0.000000 0.770513 0.757298
0.218104 0.768259 0.754103
0.489311 0.765298 0.751433
0.761504 0.762329 0.748751
1.000000 0.759351 0.746058
0.000000 1.000000 0.747760
0.212869 1.000000 0.745085
0.485743 1.000000 0.742398
0.759473 1.000000 0.739180
1.000000 1.000000 0.736367
0.000000 0.000000 1.000000
0.235863 0.000000 1.000000
0.500450 0.000000 1.000000
0.767621 0.000000 1.000000
1.000000 0.000000 1.000000
0.000000 0.236004 1.000000
0.229700 0.233263 1.000000
0.498511 0.230501 1.000000
0.769717 0.227716 1.000000
1.000000 0.225769 1.000000
0.000000 0.500980 1.000000
0.223364 0.499506 1.000000
0.492909 0.497807 1.000000
0.763405 0.495934 1.000000
1.000000 0.493794 1.000000
0.000000 0.769943 1.000000
0.217584 0.767260 1.000000
0.488960 0.764298 1.000000
0.761321 0.761328 1.000000
1.000000 0.758348 1.000000
0.000000 1.000000 1.000000
0.212353 1.000000 1.000000
0.485396 1.000000 1.000000
0.759211 1.000000 1.000000
1.000000 1.000000 1.000000
